!!!!SEGMENT: pl-gd--ee-1638--002-027_marenzio-luca--motettorum-pro-festis-totius-anni-in-festo-dedicat-s-mich-archang-princeps-gloriosissime.krn
!!!cenid: 15xx:1030
!!!COM: Marenzio, Luca
!!!COM-rismID: pe30003955
!!!CDT: ~1553-1599/08/22
!!!CNT: Italian
!!!GTL: Motettorum pro festis totius anni
!!!OTL: In festo Dedicat. S. Mich. Archang./Princeps gloriosissime
!!!OMV: 027
!!!PDT: 1588
!!!AGN:
!!!YEC: Copyright 2022 Narodowy Instytut Fryderyka Chopina (https://polishscores.org)
!!!YEM: License CC-BY-4.0 (https://creativecommons.org/licenses/by/4.0)
!!!SMS-siglum: PL-GD
!!!SMS-shelfmark: Ee 1638
!!!SMS-shelfwork: 002-027 G
!!!SMS-variant:
!!!SMS-altvar:
!!!NIFC-rismSourceID: 1001202747
!!!NIFC-rismChildID: 990039238
!!!NIFC-islandoraID: pl-gd:57883
!!!URL-pdf-islandora: https://repozytorium.nifc.pl/islandora/object/pl-gd%3A57883/datastream/PDF/view
!!!URL-scan: https://polish.musicsources.pl/pl/lokalizacje/galeria/klocki-introligatorskie/655 @EN{Scan on Polish Music Sources Website} @PL{Skany w portalu Dziedzictwo Muzyki Polskiej w otwartym dostępie}
!!!IIIF: https://repozytorium.nifc.pl/islandora/object/pl-gd%3A57883/datastream/IIIF/view
!!!ONB-nifc: UWAGA: Cantus: s. 629 (prawa), Altus: s. 477 (prawa), Tenor: s. 325 (prawa), Bassus: s. 173 (prawa)
!!!AIN: 1 alto 1 bass 1 soprn 1 tenor
!!!key: F
**kern	**text	**kern	**text	**kern	**text	**kern	**text
*part4	*part4	*part3	*part3	*part2	*part2	*part1	*part1
*staff4	*staff4	*staff3	*staff3	*staff2	*staff2	*staff1	*staff1
*ICvox	*	*ICvox	*	*ICvox	*	*ICvox	*
*Ibass	*	*Itenor	*	*Ialto	*	*Isoprn	*
*I"BASSVS	*	*I"TENOR	*	*I"ALTVS	*	*I"CANTVS	*
*mI"Basso	*	*mI"Tenore	*	*mI"Alto	*	*mI"Soprano	*
*I'B	*	*I'T	*	*I'A	*	*I'S	*
*clefF3	*	*clefC3	*	*clefC2	*	*clefG2	*
*mclefF4	*	*mclefGv2	*	*mclefG2	*	*	*
*k[b-]	*	*k[b-]	*	*k[b-]	*	*k[b-]	*
*F:	*	*F:	*	*F:	*	*F:	*
*M2/1	*	*M2/1	*	*M2/1	*	*M2/1	*
*met(C)	*	*met(C)	*	*met(C)	*	*met(C)	*
*mmet(c)	*	*mmet(c)	*	*mmet(c)	*	*mmet(c)	*
=1-	=1-	=1-	=1-	=1-	=1-	=1-	=1-
*xywh-#173:4549,542,3544,848	*	*xywh-#325:4581,576,3534,791	*	*xywh-#477:4470,548,3472,854	*	*xywh-#629:4496,504,3610,822	*
!LO:TX:t=P:problem=przy kluczu BB- B-	!	!	!	!LO:TX:t=P:problem=przy kluczu B- b-	!	!	!
!LO:TX:a:i:mod= :t=In feſto Dedicat. S. Mich. Archang.	!	!LO:TX:a:i:mod= :t=In feſto Dedicat. S. Mich. Archang.	!LO:SIC:s=Prin-	!LO:TX:a:i:mod= :t=In feſto Dedicat. S. Mich. Archang.	!	!LO:TX:a:i:mod= :t=In feſto Dedicat. S. Mich. Archang.	!
1r	.	0c	PRin-	1r	.	1r	.
!	!LO:SIC:s=Prin-	!	!	!	!LO:SIC:s=Prin-	!	!LO:SIC:s=Prin-
0F	PRin-	.	.	0f	PRin-	0a	PRin-
=2-	=2-	=2-	=2-	=2-	=2-	=2-	=2-
.	.	1c	-ceps	.	.	.	.
1F	-ceps	2r	.	0f	-ceps	0a	-ceps
.	.	2f\	glo-	.	.	.	.
=3-	=3-	=3-	=3-	=3-	=3-	=3-	=3-
2r	.	2d\	-ri-	.	.	.	.
2F/	glo-	2c/	-o-	.	.	.	.
2A\	-ri-	2.f\	-ſiſ-	1r	.	1r	.
2B-\	-o-	.	.	.	.	.	.
.	.	4f\	si-	.	.	.	.
=4-	=4-	=4-	=4-	=4-	=4-	=4-	=4-
*	*	*	*	*	*	*	*ij
!	!	!	!	!	!	!	!LO:SIC:s=prin-
2.c\	-ſiſ-	1e	-me	2r	.	1g	PRin-
.	.	.	.	2g\	glo-	.	.
4c\	-si-	.	.	.	.	.	.
0G	-me	2r	.	2e/	-rio-	1g	-ceps
*	*	*	*ij	*	*	*	*Xij
.	.	2g\	glo-	2d/	-o-	.	.
=5-	=5-	=5-	=5-	=5-	=5-	=5-	=5-
.	.	2e\	-ri-	2.g\	ſiſ-	2r	.
.	.	2d\	-o-	.	.	2b-/	glo-
.	.	.	.	4a\	.	.	.
1r	.	2.g\	-ſiſ-	2.b-\	.	2dd\	-ri-
.	.	.	.	.	.	2ee\	-o-
.	.	4g\	si-	4b-\	-ſi-	.	.
=6-	=6-	=6-	=6-	=6-	=6-	=6-	=6-
2r	.	1d	-me	0a	-me	2.ff\	-ſiſ-
*	*	*	*Xij	*	*	*	*
1d\	Mi-	.	.	.	.	.	.
.	.	.	.	.	.	4ff\	-si-
.	.	1r	.	.	.	0ee	-me
2c\	-cha-	.	.	.	.	.	.
=7-	=7-	=7-	=7-	=7-	=7-	=7-	=7-
1c	-el	2r	.	0r	.	.	.
.	.	1g\	Mi-	.	.	.	.
!	!LO:SIC:s=Ar-	!	!	!	!	!	!
2G\	ar-	.	.	.	.	1r	.
*xywh-#173:4596,1226,3497,660	*	*	*	*	*	*	*
*custos:B	*	*	*	*	*	*	*
!LO:LB:g=original	!	!	!	!	!	!	!
1B-\	-chan-	2f\	-cha-	.	.	.	.
=8-	=8-	=8-	=8-	=8-	=8-	=8-	=8-
!	!	!	!	!	!	!	!LO:SIC:s=prin-
.	.	1f	-el	0r	.	1ff	Prin-
2A\	-ge-	.	.	.	.	.	.
1B-	-le	2d\	Ar-	.	.	1ff	-ceps
.	.	1f\	-chan-	.	.	.	.
=9-	=9-	=9-	=9-	=9-	=9-	=9-	=9-
*	*	*	*	*	*	*	*ij
1r	.	.	.	1r	.	0cc	Prin-
.	.	2e\	-ge-	.	.	.	.
0F	prin-	1f	-le	0a	prin-	.	.
*	*	*custos:f	*	*	*	*custos:cc	*
!	!	!LO:LB:g=original	!	!	!	!LO:LB:g=original	!
=10-	=10-	=10-	=10-	=10-	=10-	=10-	=10-
*	*	*xywh-#325:4558,1206,3503,691	*	*	*	*xywh-#629:4527,1195,3423,667	*
.	.	2r	.	.	.	1cc	ceps
*	*	*	*	*	*	*	*Xij
.	.	2f\	glo-	.	.	.	.
*	*	*	*	*custos:a	*	*	*
*	*	*	*	*xywh-#477:4509,1222,3432,697	*	*	*
!	!	!	!	!LO:LB:g=original	!	!	!
0F	-ceps	2d\	-ri-	1a	-ceps	2r	.
.	.	2c/	-o-	.	.	2ff\	glo-
=11-	=11-	=11-	=11-	=11-	=11-	=11-	=11-
.	.	2.f\	-ſiſ-	2r	.	2dd\	-ri-
.	.	.	.	2f\	glo-	2cc\	-o-
.	.	4e\	.	.	.	.	.
1r	.	2.d\	.	2a\	-ri-	2.ff\	-ſiſ-
.	.	.	.	2b-\	-o-	.	.
.	.	4d\	-si-	.	.	4ff\	-si-
=12-	=12-	=12-	=12-	=12-	=12-	=12-	=12-
2r	.	1.c	-me	2.cc\	-ſis-	1ee	-me
2C/	glo-	.	.	.	.	.	.
.	.	.	.	4cc\	-ſi-	.	.
2E/	-ri-	.	.	2g\	me	1r	.
*	*	*	*ij	*	*	*	*
2F/	-o-	2A/	glo-	1cc\	Mi-	.	.
=13-	=13-	=13-	=13-	=13-	=13-	=13-	=13-
2.G\	-ſiſ-	2.d\	-ri-	.	.	2r	.
.	.	.	.	2b-\	-cha-	1dd\	Mi-
4G\	-si-	4e\	-o-	.	.	.	.
1F	me	2.f\	-ſiſ-	1a	-el	.	.
.	.	.	.	.	.	2cc\	-cha-
.	.	4f\	-si-	.	.	.	.
=14-	=14-	=14-	=14-	=14-	=14-	=14-	=14-
2r	.	2c/	me	2r	.	1cc	-el
*	*	*	*Xij	*	*	*	*
1F\	Mi-	1f\	Mi-	1a\	Mi-	.	.
.	.	.	.	.	.	2a/	Ar-
2C/	-cha-	2e\	-cha-	2g\	-cha-	1cc\	-chan-
=15-	=15-	=15-	=15-	=15-	=15-	=15-	=15-
1G	-el	2d\	-el	1g	-el	.	.
!	!	!	!	!	!	!LO:N:acc=#	!
.	.	2g\	Ar-	.	.	2bn/	-ge-
1c	Ar-	4g\	-chan-	2e/	Ar-	0cc	-le
.	.	4f\	.	.	.	.	.
.	.	4e\	.	1g\	-chan-	.	.
.	.	4d\	.	.	.	.	.
=16-	=16-	=16-	=16-	=16-	=16-	=16-	=16-
2.A\	-chan-	2.c/	.	.	.	.	.
.	.	.	.	2f#X\	-ge-	.	.
4A\	-ge-	4c/	ge-	.	.	.	.
*custos:G	*	*	*	*	*	*	*
*xywh-#173:4580,1721,3497,754	*	*	*	*	*	*	*
!LO:LB:g=original	!	!	!	!	!	!	!
1G	-le	0d	-le	4g\	.	2r	.
.	.	.	.	4a\	.	.	.
*	*	*	*	*custos:b	*	*	*ij
*	*	*	*	*xywh-#477:4493,1779,3370,689	*	*	*
!	!	!	!	!LO:LB:g=original	!	!	!
.	.	.	.	4b-\	.	1gg\	Mi-
.	.	.	.	4g\	.	.	.
=17-	=17-	=17-	=17-	=17-	=17-	=17-	=17-
2r	.	.	.	1a	le	.	.
1d\	e-	.	.	.	.	2ff\	-cha-
.	.	1r	.	2r	.	1ff	-el
2A\	-ſto	.	.	1fny\	e-	.	.
=18-	=18-	=18-	=18-	=18-	=18-	=18-	=18-
1B-	me-	0r	.	.	.	2dd\	Ar-
.	.	.	.	2b-\	-ſto	1ff\	-chan-
1c	-mor	.	.	2a\	me-	.	.
.	.	.	.	2g\	-mor	2ee\	-ge-
*	*	*	*	*	*	*custos:ff	*
!	!	!	!	!	!	!LO:LB:g=original	!
=19-	=19-	=19-	=19-	=19-	=19-	=19-	=19-
*	*	*	*	*	*	*xywh-#629:4542,1708,3385,698	*
1d	no-	2r	.	2f\	no-	2.ff\	-le
.	.	1a\	e-	2d/	ſtri	.	.
.	.	.	.	.	.	8ee\	.
.	.	.	.	.	.	8dd\	.
1c	-ſtri	.	.	1r	.	2ee\	.
*	*	*	*	*	*	*	*Xij
.	.	2e\	-ſto	.	.	1cc\	e-
*	*	*custos:f	*	*	*	*	*
*	*	*xywh-#325:4581,1752,3342,653	*	*	*	*	*
!	!	!LO:LB:g=original	!	!	!	!	!
=20-	=20-	=20-	=20-	=20-	=20-	=20-	=20-
2r	.	2f\	me-	2r	.	.	.
*	*ij	*	*	*	*ij	*	*
1F\	e-	2c/	-mor	1f\	e-	1a/	-ſto
.	.	1d	no-	.	.	.	.
!	!	!	!	!	!	!LO:N:acc=#	!
2D/	-ſto	.	.	2f\	-ſto	2bn/	me-
=21-	=21-	=21-	=21-	=21-	=21-	=21-	=21-
2E/	me-	1c	-ſtri	2g\	me-	1cc	-mor
2F/	-mor	.	.	2a\	-mor	.	.
1BB-	no-	0f	hic	1b-	no-	1dd	no-
=22-	=22-	=22-	=22-	=22-	=22-	=22-	=22-
1F	-ſtri	.	.	1a	ſtri	1cc	-ſtri
*	*Xij	*	*	*	*Xij	*	*
0c	hic	2r	.	0g	hic	1cc	hic
.	.	2.e\	et	.	.	.	.
=23-	=23-	=23-	=23-	=23-	=23-	=23-	=23-
.	.	.	.	.	.	2r	.
!	!	!	!LO:SIC:s=u-	!	!	!	!
.	.	4e\	v-	.	.	.	.
.	.	2e\	-bi-	.	.	2.gg\	et
1r	.	1c	-que	2r	.	.	.
!	!	!	!	!	!	!	!LO:SIC:s=u-
.	.	.	.	.	.	4gg\	v-
.	.	.	.	2.cc\	et	2gg\	-bi-
=24-	=24-	=24-	=24-	=24-	=24-	=24-	=24-
0r	.	0r	.	.	.	2ee\	-que
!	!	!	!	!	!LO:SIC:s=u-	!	!
.	.	.	.	4cc\	v-	.	.
.	.	.	.	2cc\	-bi-	2gg\	ſem-
.	.	.	.	2a\	-que	2ff\	-per
*	*	*	*	*custos:cc	*	*	*
*	*	*	*	*xywh-#477:4493,2296,3448,752	*	*	*
!	!	!	!	!LO:LB:g=original	!	!	!
.	.	.	.	2cc\	ſem-	2ee\	pre-
=25-	=25-	=25-	=25-	=25-	=25-	=25-	=25-
0r	.	1r	.	2b-\	-per	4dd\	-ca-
.	.	.	.	.	.	4ee\	.
.	.	.	.	2a\	pre-	2.ff\	.
.	.	1c	hic	1g	-ca-	.	.
.	.	.	.	.	.	8ee\	.
.	.	.	.	.	.	8dd\	.
*	*	*	*	*	*	*custos:ee	*
*	*	*	*	*	*	*xywh-#629:4550,2197,3470,791	*
!	!	!	!	!	!	!LO:LB:g=original	!
.	.	.	.	.	.	2ee\	.
=26-	=26-	=26-	=26-	=26-	=26-	=26-	=26-
1F	hic	2r	.	2.f\	.	2.ff\	-re
.	.	2.c/	et	.	.	.	.
.	.	.	.	4g\	.	8ee\	.
.	.	.	.	.	.	8dd\	.
2r	.	.	.	0a	re	0cc	.
!	!	!	!LO:SIC:s=u-	!	!	!	!
.	.	4c/	v-	.	.	.	.
2.F/	et	2c/	-bi-	.	.	.	.
=27-	=27-	=27-	=27-	=27-	=27-	=27-	=27-
.	.	2A/	-que	.	.	.	.
!	!LO:SIC:s=u-	!	!	!	!	!	!
4F/	v-	.	.	.	.	.	.
*custos:F	*	*	*	*	*	*	*
*xywh-#173:4557,2326,3536,668	*	*	*	*	*	*	*
!LO:LB:g=original	!	!	!	!	!	!	!
2F/	-bi-	2c/	ſem-	.	.	.	.
2D/	-que	2B-/	-per	1r	.	1r	.
2F/	ſem-	2A/	pre-	.	.	.	.
=28-	=28-	=28-	=28-	=28-	=28-	=28-	=28-
2B-\	-per	4d\	-ca-	0r	.	1r	.
.	.	4e\	.	.	.	.	.
2A\	pre-	2.f\	.	.	.	.	.
!	!	!	!	!	!	!	!LO:SIC:s=hic
1G	-ca-	.	.	.	.	1g	Hic
.	.	8e\	.	.	.	.	.
.	.	8d\	.	.	.	.	.
.	.	2e\	.	.	.	.	.
=29-	=29-	=29-	=29-	=29-	=29-	=29-	=29-
0F	re	2.f\	-re	1c	hic	2r	.
.	.	.	.	.	.	2.cc\	et
.	.	4g\	.	.	.	.	.
*	*	*custos:a	*	*	*	*	*
*	*	*xywh-#325:4520,2274,3480,683	*	*	*	*	*
!	!	!LO:LB:g=original	!	!	!	!	!
.	.	1a	.	2r	.	.	.
!	!	!	!	!	!	!	!LO:SIC:s=u-
.	.	.	.	.	.	4cc\	v-
.	.	.	.	2.f\	et	2cc\	-bi-
=30-	=30-	=30-	=30-	=30-	=30-	=30-	=30-
0r	.	0r	.	.	.	2a/	-que
!	!	!	!	!	!LO:SIC:s=u-	!	!
.	.	.	.	4f\	v-	.	.
.	.	.	.	2f\	-bi-	2cc\	ſem-
.	.	.	.	2d/	-que	2b-y/	-per
.	.	.	.	2g\	ſem-	2b-/	pre-
=31-	=31-	=31-	=31-	=31-	=31-	=31-	=31-
1F	pro	1r	.	2f\	-per	4a/	-ca-
.	.	.	.	.	.	4b-/	.
.	.	.	.	2e/	pre-	2.cc\	.
1G	no-	1g	hic	1d	-ca-	.	.
!	!	!	!	!	!	!LO:SIC:s=8bi	!
.	.	.	.	.	.	8b-/	.
.	.	.	.	.	.	8a/	.
!	!	!	!	!	!	!LO:N:acc=#	!
.	.	.	.	.	.	2bn/	.
=32-	=32-	=32-	=32-	=32-	=32-	=32-	=32-
1A	-bis	2r	.	2.c/	.	0.cc	-re
.	.	2.c/	et	.	.	.	.
.	.	.	.	4B-/	.	.	.
*	*	*	*	*custos:A	*	*	*
*	*	*	*	*xywh-#477:4462,2884,3472,681	*	*	*
!	!LO:SIC:s=Fi-	!	!	!LO:LB:g=original	!	!	!
1.F	fi-	.	.	2A/	-re	.	.
!	!	!	!LO:SIC:s=u-	!	!	!	!
.	.	4c/	v-	.	.	.	.
.	.	2c/	-bi-	1a\	ſem-	.	.
=33-	=33-	=33-	=33-	=33-	=33-	=33-	=33-
.	.	2A/	-que	.	.	.	.
2C/	-li-	2c/	ſem-	1g\	-per	.	.
1D	-um	2B-/	-per	.	.	1r	.
.	.	2A/	pre-	2f#X\	pre-	.	.
=34-	=34-	=34-	=34-	=34-	=34-	=34-	=34-
2.E-X/	De-	4G/	-ca-	2.g\	-ca-	1b-y	pro
.	.	4A/	.	.	.	.	.
.	.	2.B-/	.	.	.	.	.
!	!	!	!	!LO:SIC:s=4fi	!	!	!
4D/	.	.	.	4fny\	.	.	.
*	*	*	*	*	*	*custos:cc	*
*	*	*	*	*	*	*xywh-#629:4535,2802,3501,683	*
!	!	!	!	!	!	!LO:LB:g=original	!
1C	.	.	.	1e-X	.	1cc	no-
.	.	8A/	.	.	.	.	.
.	.	8G/	.	.	.	.	.
.	.	2A/	.	.	.	.	.
=35-	=35-	=35-	=35-	=35-	=35-	=35-	=35-
0BB-	-i	1B-	-re	2d/	-re	1dd	-bis
.	.	.	.	2.b-\	et	.	.
!	!	!	!	!	!	!	!LO:SIC:s=Fi-
.	.	2r	.	.	.	1.ff	fi-
!	!	!	!	!	!LO:SIC:s=u-	!	!
.	.	.	.	4b-\	v-	.	.
!	!	!	!LO:SIC:s=sem-	!	!	!	!
.	.	2.d\	se(m)-	2b-\	-bi-	.	.
=36-	=36-	=36-	=36-	=36-	=36-	=36-	=36-
0r	.	.	.	2f\	-que	.	.
.	.	4e\	-per	.	.	.	.
.	.	2f\	pre-	2a\	ſem-	2cc\	-li-
.	.	1B-	-ca-	2g\	-per	1dd	-um
.	.	.	.	2f\	pre-	.	.
=37-	=37-	=37-	=37-	=37-	=37-	=37-	=37-
1r	.	1e-X	.	4g\	-ca-	2.ee-X\	De-
.	.	.	.	4a\	.	.	.
.	.	.	.	2.b-\	.	.	.
.	.	.	.	.	.	4dd\	.
1F	hic	1f	.	.	.	1cc	.
.	.	.	.	8a\	.	.	.
.	.	.	.	8g\	.	.	.
.	.	.	.	2a\	.	.	.
*custos:B	*	*	*	*custos:b	*	*	*
*	*	*	*	*xywh-#477:4485,3370,3479,752	*	*	*
!LO:LB:g=original	!	!	!	!LO:LB:g=original	!	!	!
=38-	=38-	=38-	=38-	=38-	=38-	=38-	=38-
*xywh-#173:4604,2837,3497,699	*	*	*	*	*	*	*
2r	.	2.B-/	-re	1b-	-re	1dd	-i
2.B-\	et	.	.	.	.	.	.
.	.	4c	.	.	.	.	.
*	*	*custos:d	*	*	*	*	*
*	*	*xywh-#325:4543,2843,3427,683	*	*	*	*	*
!	!	!LO:LB:g=original	!	!	!	!	!
.	.	1d	.	1f	pro	1ff	hic
!	!LO:SIC:s=u-	!	!	!	!	!	!
4B-\	v-	.	.	.	.	.	.
2B-\	-bi-	.	.	.	.	.	.
=39-	=39-	=39-	=39-	=39-	=39-	=39-	=39-
2G\	-que	0r	.	0g	no-	2r	.
2.c\	et	.	.	.	.	2.eeny\	et
.	.	.	.	.	.	.	.
!	!LO:SIC:s=u-	!	!	!	!	!	!LO:SIC:s=u-
4c\	v-	.	.	.	.	4ee\	v-
2c\	-bi-	.	.	.	.	2ee\	-bi-
=40-	=40-	=40-	=40-	=40-	=40-	=40-	=40-
2A\	-que	1r	.	1a	-bis	2ff\	-que
!	!	!	!	!	!	!	!LO:SIC:s=sem-
2c\	ſem-	.	.	.	.	2ee\	se(m)-
!	!	!	!	!	!LO:SIC:s=Fi-	!	!
2B-\	-per	1f	pro	1.d	fi-	2dd\	-per
2A\	pre-	.	.	.	.	2cc\	pre-
=41-	=41-	=41-	=41-	=41-	=41-	=41-	=41-
1G	-ca-	1g	no-	.	.	2b-/	-ca-
.	.	.	.	2eny/	-li-	2g/	-re
0.F	-re	1a	-bis	2f\	-um	2r	.
*	*	*	*	*	*	*	*ij
.	.	.	.	2.a\	et	2.cc\	et
=42-	=42-	=42-	=42-	=42-	=42-	=42-	=42-
!	!	!	!LO:SIC:s=Fi-	!	!	!	!
.	.	1.f	fi-	.	.	.	.
!	!	!	!	!	!LO:SIC:s=u-	!	!LO:SIC:s=u-
.	.	.	.	4a\	v-	4cc\	v-
.	.	.	.	2a\	-bi-	2cc\	-bi-
.	.	.	.	2f\	-que	2a/	-que
!	!	!	!	!	!	!	!LO:SIC:s=sem-
.	.	2c/	-li-	2a\	ſem-	2cc\	se(m)-
=43-	=43-	=43-	=43-	=43-	=43-	=43-	=43-
1B-	pro	1d	-um	2g\	-per	2b-/	-per
.	.	.	.	1f\	pre-	2a/	pre-
*	*	*	*	*	*	*custos:g	*
*	*	*	*	*	*	*xywh-#629:4558,3346,3462,722	*
!	!	!	!	!	!	!LO:LB:g=original	!
1c	no-	1r	.	.	.	1g	-ca-
.	.	.	.	2e/	-ca-	.	.
=44-	=44-	=44-	=44-	=44-	=44-	=44-	=44-
1d	-bis	2r	.	1a	-re	1f	re
*	*	*	*	*	*	*	*Xij
!	!	!	!LO:SIC:s=Fi-	!	!	!	!
.	.	1f\	fi-	.	.	.	.
!	!LO:SIC:s=Fi-	!	!	!	!	!	!
1.B-	fi-	.	.	1.d	pro	0b-	pro
.	.	2d\	-li-	.	.	.	.
=45-	=45-	=45-	=45-	=45-	=45-	=45-	=45-
.	.	2.g\	-um	.	.	.	.
2G\	-li-	.	.	1e\	no-	.	.
.	.	4f\	.	.	.	.	.
*custos:A	*	*	*	*	*	*	*
*xywh-#173:4580,3372,3497,707	*	*	*	*	*	*	*
!LO:LB:g=original	!	!	!	!	!	!	!
1A	-um	2eny\	.	.	.	0cc	no-
.	.	2.f\	De-	2a\	-bis	.	.
=46-	=46-	=46-	=46-	=46-	=46-	=46-	=46-
!	!	!	!	!	!LO:SIC:s=Fi-	!	!
2.F/	De-	.	.	2.a\	fi-	.	.
.	.	8e\	.	.	.	.	.
.	.	8d\	.	.	.	.	.
.	.	1c\	.	.	.	.	.
4Eny/	.	.	.	4g\	-li-	.	.
*	*	*	*	*custos:f	*	*	*
*	*	*	*	*xywh-#477:4470,3942,3393,752	*	*	*
!	!	!	!	!LO:LB:g=original	!	!	!
0D	.	.	.	1f	-um	2dd\	-bis
!	!	!LO:SIC:s=4Bi	!	!	!	!	!LO:SIC:s=Fi-
.	.	4B-/	.	.	.	1ff\	fi-
.	.	4A/	.	.	.	.	.
=47-	=47-	=47-	=47-	=47-	=47-	=47-	=47-
!	!	!LO:N:acc=#	!	!	!	!	!
.	.	1Bn	.	1f	De-	.	.
.	.	.	.	.	.	2dd\	-li-
2C/	i	2c/	-i	2e/	-i	1ee	-um
2C/	Al-	2G/	Al-	2cc\	Al-	.	.
=48-	=48-	=48-	=48-	=48-	=48-	=48-	=48-
1D	-le-	2.d\	-le-	1a	-le-	2.ff\	De-
.	.	4e\	.	.	.	4ee\	.
1BB-	-lu-	2f\	.	1b-	-lu-	1dd	.
*	*	*custos:f	*	*	*	*	*
*	*	*xywh-#325:4527,3381,3404,683	*	*	*	*	*
!	!	!LO:LB:g=original	!	!	!	!	!
.	.	2.f\	-lu-	.	.	.	.
=49-	=49-	=49-	=49-	=49-	=49-	=49-	=49-
2C/	-ia	.	.	1g	-ia	2cc\	-i
.	.	8e\	.	.	.	.	.
.	.	8d\	.	.	.	.	.
!	!LO:SIC:s=al-	!	!	!	!	!	!
2c\	Al-	2e\	.	.	.	2gg\	Al-
2d\	-le-	1d	-ia	1r	.	1ff	-le-
2B-\	-lu-	.	.	.	.	.	.
=50-	=50-	=50-	=50-	=50-	=50-	=50-	=50-
*	*	*	*ij	*	*	*	*
!	!	!	!LO:SIC:s=al-	!	!LO:SIC:s=al-	!	!
2c\	-ia	2g\	Al-	1cc	Al-	1ee	-lu-
!	!LO:SIC:s=al-	!	!	!	!	!	!
2A\	Al-	2a\	-le-	.	.	.	.
2B-\	-le-	2f\	-lu-	1b-	-le-	1dd	-ia
2G\	-lu-	2g\	-ia	.	.	.	.
*	*	*	*Xij	*	*	*	*
=51-	=51-	=51-	=51-	=51-	=51-	=51-	=51-
*	*	*	*	*	*	*	*ij
!	!	!	!LO:SIC:s=al-	!	!	!	!LO:SIC:s=al-
2A\	-ia	2e\	Al-	1a	-lu-	1cc	Al-
!	!LO:SIC:s=al-	!	!	!	!	!	!
2F/	Al-	2f\	-le-	.	.	.	.
2G\	-le-	2d\	-lu-	1g	-ia	1b-	-le-
2E-X/	-lu-	2e-X\	-ia	.	.	.	.
*custos:F	*	*	*	*	*	*	*
!LO:LB:g=original	!	!	!	!	!	!	!
=52-	=52-	=52-	=52-	=52-	=52-	=52-	=52-
*xywh-#173:4564,3937,3442,683	*	*	*ij	*	*ij	*	*
!	!	!	!LO:SIC:s=al-	!	!LO:SIC:s=al-	!	!
2F/	-ia	2c/	Al-	1f	Al-	1a	-lu-
*	*ij	*	*	*	*	*	*
!	!LO:SIC:s=al-	!	!	!	!	!	!
2D/	Al-	2d\	-le-	.	.	.	.
2E-X/	-le-	2B-y/	-lu-	1e-X	-le-	2g/	-ia
*	*	*	*	*	*	*custos:gg	*Xij
*	*	*	*	*	*	*xywh-#629:4558,3913,3540,652	*
!	!	!	!	!	!	!LO:LB:g=original	!LO:SIC:s=al-
2C/	-lu-	2c/	-ia	.	.	2gg\	Al-
*	*	*	*Xij	*	*	*	*
=53-	=53-	=53-	=53-	=53-	=53-	=53-	=53-
2D/	-ia	2r	.	1d	-lu-	2ff\	-le-
!	!LO:SIC:s=al-	!	!LO:SIC:s=al-	!	!	!	!
2d\	Al-	2f\	Al-	.	.	2dd\	-lu-
1c	-le-	2eny\	-le-	2g\	-ia	2ee\	-ia
*	*	*	*	*	*	*	*ij
!	!	!	!	!	!LO:SIC:s=al-	!	!LO:SIC:s=al-
.	.	2g\	-lu-	2eny/	Al-	2cc\	Al-
=54-	=54-	=54-	=54-	=54-	=54-	=54-	=54-
1B-	-lu-	2d\	-ia	2f\	-le-	2dd\	-le-
*	*	*	*ij	*	*	*	*
!	!	!	!LO:SIC:s=al-	!	!	!	!
.	.	2f\	Al-	2d/	-lu-	2b-/	-lu-
1A	-ia	4a\	-le-	2e/	-ia	2cc\	-ia
.	.	8g\	.	.	.	.	.
.	.	8f\	.	.	.	.	.
!	!	!	!	!	!LO:SIC:s=al-	!	!LO:SIC:s=al-
.	.	4e\	.	2c/	Al-	2a/	Al-
.	.	4f\	.	.	.	.	.
=55-	=55-	=55-	=55-	=55-	=55-	=55-	=55-
!	!LO:SIC:s=al-	!	!	!	!	!	!
1G	Al-	4g\	.	2d/	-le-	2b-/	-le-
*	*	*custos:f	*	*custos:B	*	*	*
*	*	*xywh-#325:4527,3903,3465,699	*	*xywh-#477:4454,4522,3503,822	*	*	*
!	!	!LO:LB:g=original	!	!LO:LB:g=original	!	!	!
.	.	8f\	.	.	.	.	.
.	.	8e\	.	.	.	.	.
.	.	4d\	.	2B-/	-lu-	2g/	-lu-
.	.	4e\	.	.	.	.	.
1F	-le-	4f\	.	1c	-ia	2a/	-ia
*	*	*	*	*	*Xij	*	*Xij
.	.	8e\	.	.	.	.	.
.	.	8d\	.	.	.	.	.
!	!	!	!	!	!	!	!LO:SIC:s=al-
.	.	4c/	.	.	.	2a/	Al-
.	.	4d\	.	.	.	.	.
=56-	=56-	=56-	=56-	=56-	=56-	=56-	=56-
!	!	!	!	!	!LO:SIC:s=al-	!	!
1E-X	-lu-	4e-X\	.	1g	Al-	4cc\	-le-
.	.	8d\	.	.	.	8b-/	.
.	.	8c\	.	.	.	8a/	.
.	.	4B-/	.	.	.	4g/	.
.	.	4c/	.	.	.	4a/	.
1D	-ia	4d\	.	1f	-le-	4b-/	.
*	*Xij	*	*	*	*	*	*
.	.	8c/	.	.	.	8a/	.
.	.	8B-/	.	.	.	8g/	.
.	.	4A/	.	.	.	4f/	.
.	.	4B-/	.	.	.	4g/	.
=57-	=57-	=57-	=57-	=57-	=57-	=57-	=57-
*	*	*	*	*lig	*	*	*
2r	.	2.c/	.	1e-X	-lu-	2a/	.
*	*	*	*	*	*	*custos:g	*
*	*	*	*	*	*	*xywh-#629:4550,4456,3478,753	*
!	!LO:SIC:s=al-	!	!	!	!	!LO:LB:g=original	!
2C/	Al-	.	.	.	.	2.g/	lu-
.	.	4B-/	.	.	.	.	.
2D/	-le-	2A/	.	1d	.	.	.
.	.	.	.	.	.	4f/	.
2BB-/	-lu-	2d\	lu-	.	.	2.f/	.
*	*	*	*	*Xlig	*	*	*
=58-	=58-	=58-	=58-	=58-	=58-	=58-	=58-
2C/	-ia	1g	-ia	1c	-ia	.	.
*	*	*	*Xij	*	*	*	*
!	!	!	!	!	!	!LO:SIC:s=8eL	!
.	.	.	.	.	.	8e/	.
!	!	!	!	!	!	!LO:SIC:s=8dJ	!
!	!	!	!	!	!	!LO:N:vis=4	!
.	.	.	.	.	.	8d/	.
*	*ij	*	*	*	*	*	*
!	!LO:SIC:s=al-	!	!	!	!	!	!
2c\	Al-	.	.	.	.	2e/	.
2d\	-le-	2r	.	1r	.	2f/	ia
!	!	!	!LO:SIC:s=al-	!	!	!	!LO:SIC:s=al-
2B-\	-lu-	2d\	Al-	.	.	2ff\	Al-
=59-	=59-	=59-	=59-	=59-	=59-	=59-	=59-
!	!	!	!	!	!LO:SIC:s=al-	!	!
2c\	-ia	2g\	-le-	1cc	Al-	1ee	-le-
!	!LO:SIC:s=al-	!	!	!	!	!	!
2A\	Al-	2a\	-lu-	.	.	.	.
2B-\	-le-	2f\	-ia	1b-	-le-	1dd	-lu-
*custos:G	*	*	*ij	*	*	*	*
*xywh-#173:4572,4433,3560,778	*	*	*	*	*	*	*
!LO:LB:g=original	!	!	!LO:SIC:s=al-	!	!	!	!
2G\	-lu-	2g\	Al-	.	.	.	.
*	*	*custos:e	*	*	*	*	*
!	!	!LO:LB:g=original	!	!	!	!	!
=60-	=60-	=60-	=60-	=60-	=60-	=60-	=60-
*	*	*xywh-#325:4520,4411,3480,814	*	*	*	*	*
2A\	-ia	2eny\	-le-	1a	-lu-	1cc	-ia
!	!LO:SIC:s=al-	!	!	!	!	!	!
2F/	Al-	2f\	-lu-	.	.	.	.
!	!	!	!	!	!	!	!LO:SIC:s=al-
2G\	-le-	2d\	-ia	1g	-ia	1.b-	Al-
*	*	*	*Xij	*	*	*	*
!	!	!	!LO:SIC:s=al-	!	!	!	!
2E-X/	-lu-	2e-X\	Al-	.	.	.	.
=61-	=61-	=61-	=61-	=61-	=61-	=61-	=61-
*	*	*	*	*	*ij	*	*
!	!	!	!	!	!LO:SIC:s=al-	!	!
1F	-ia	1c	-le-	1f	Al-	.	.
*	*Xij	*	*	*	*	*	*
.	.	.	.	.	.	1a/	-le-
2r	.	2.c/	-lu-	1e-X	-le-	.	.
!	!LO:SIC:s=al-	!	!	!	!	!	!
2C/	Al-	.	.	.	.	2.g/	-lu-
.	.	4B-/	.	.	.	.	.
=62-	=62-	=62-	=62-	=62-	=62-	=62-	=62-
2D/	-le-	2A/	.	1d	-lu-	.	.
.	.	.	.	.	.	4f/	.
2BB-/	-lu-	4B-/	.	.	.	1f/	.
.	.	4A/	.	.	.	.	.
1C	-ia	1G	.	1c	-ia	.	.
.	.	.	.	.	.	2e/	.
=63-	=63-	=63-	=63-	=63-	=63-	=63-	=63-
2r	.	1F	-ia	2r	.	[0fl	-ia.
!	!LO:SIC:s=al-	!	!	!	!LO:SIC:s=al-	!	!
2F/	Al-	.	.	2c/	Al-	.	.
1B-	-le-	1r	.	2d/	-le-	.	.
.	.	.	.	2B-/	-lu-	.	.
=64-	=64-	=64-	=64-	=64-	=64-	=64-	=64-
1A	-lu-	2r	.	1c	-ia	0f_	.
*	*	*	*ij	*	*	*	*
!	!	!	!LO:SIC:s=al-	!	!	!	!
.	.	2c/	Al-	.	.	.	.
2B-\	-ia	2d\	-le-	1r	.	.	.
!	!LO:SIC:s=al-	!	!	!	!	!	!
2BB-/	Al-	2B-/	-lu-	.	.	.	.
=65-	=65-	=65-	=65-	=65-	=65-	=65-	=65-
1F	-le-	2c/	-ia	2r	.	0f_	.
!	!	!	!LO:SIC:s=al-	!	!LO:SIC:s=al-	!	!
.	.	2A/	Al-	2c/	Al-	.	.
0BB-	-lu-	2.B-/	-le-	1d	-le-	.	.
.	.	4c/	.	.	.	.	.
=66-	=66-	=66-	=66-	=66-	=66-	=66-	=66-
.	.	2d\	.	1B-	-lu-	0f_	.
.	.	1B-/	-lu-	.	.	.	.
!	!	!	!	!	!LO:SIC:s=-ia.	!	!
[1Fl	-ia.	.	.	[1cl	-ia	.	.
*	*	*	*	*	*Xij	*	*
.	.	4A/	.	.	.	.	.
.	.	4G/	.	.	.	.	.
=67-	=67-	=67-	=67-	=67-	=67-	=67-	=67-
!	!	!	!LO:SIC:s=-ia.	!	!	!	!
0F]	.	0Al	-ia	0c]	.	0f]	.
*	*	*	*Xij	*	*	*	*
==	==	==	==	==	==	==	==
*-	*-	*-	*-	*-	*-	*-	*-
!!!system-decoration: [*]
!!LO:MO:ori
!!!RDF**kern: l = terminal long
!!LO:MO:mod
!! !!!RDF**kern: i = editorial accidental
!!LO:MO:end
!!!filter-modern: shed -e "s/^custos:/Xcustos:/I" | shed -e "s/LO:N:/LO:n:$1/L" | shed -e "s/TX(.*):t=P:/tx$1:t=P:/LG" | sic -sq | modori -m | autostem -r | tie -s | humtr -p | shed -e "s/-//B" | autobeam
!!!ENC: Marta Opryszak
!!!END: 2022-07-03
!!!EED: Andrzej Kubiczek
!!!EEV: 2025-02-26
!!!ENC-modern: Andrzej Kubiczek
!!!END-modern: 2025-02-26
!!!ENC-iiif: Lidia Bialucha
!!!END-iiif: 2022-09-11
